X:1
T:Confidence (Merrill), 77.77
T:Confidence (Merrill), 77.77
T:William Pierson Merrill, 1895
T:Public Domain Courtesy of the Cyber Hymnal™
C:William Pierson Merrill, 1895
Z:Public Domain
Z:Courtesy of the Cyber Hymnal™
%%score ( 1 2 ) ( 3 4 )
L:1/8
Q:1/4=115
M:4/4
K:Bb
V:1 treble 
V:2 treble 
V:3 bass 
V:4 bass 
V:1
 [B,D]2 [B,F]2 [EG]2 [FB]2 | [EA]2 [DB]2 [Cc]4 | [Fd]2 F2 [EG]2 [FA]2 | [Fe]2 [Fd]2 [Fc]4 | %4
 [^Fd]2 [DA]2 [GB]2 [GB]2 | [Gc]2 [=EG]2 [FA]4 | [FB]2 [DF]2 [EG]2 [EB]2 | [GB]2 [_Gc]2 [Fd]4 |] %8
V:2
 x8 | x8 | x2 F2 x4 | x8 | x8 | x8 | x8 | x8 |] %8
V:3
 [B,,F,]2 [D,B,]2 [E,B,]2 [D,B,]2 | [C,F,]2 [B,,F,]2 [A,,F,]4 | [B,,F,]2 [D,B,]2 [E,B,]2 [D,B,]2 | %3
 [C,A,]2 [B,,B,]2 [F,A,]4 | [D,A,]2 [^F,D]2 [G,D]2 [=F,D]2 | [=E,C]2 [C,C]2 C4 | %6
 [D,F,]2 [B,,_A,]2 [E,G,]2 [E,G,]2 | [E,B,]2 [E,A,]2 [B,,B,]4 |] %8
V:4
 x8 | x8 | x8 | x8 | x8 | x4 (F,2 _E,2) | x8 | x8 |] %8

